public/img/svg/flying.svg

<svg width="16" height="16" viewBox="0 0 16 16" fill="none" xmlns="http://www.w3.org/2000/svg">
<path fill-rule="evenodd" clip-rule="evenodd" d="M5.58475 14.9292C7.92859 14.9292 9.93522 13.6265 10.7636 11.7799C10.7738 11.7573 7.43772 12.6468 7.54409 12.3324C7.59159 12.192 9.63659 11.4449 11.1265 10.5736C11.9828 10.0727 12.3772 9.0125 12.3772 9.0125C12.3772 9.0125 10.9345 9.71297 10.2051 9.89066C8.73537 10.2488 7.44159 10.2102 7.44159 10.1729C7.44159 10.0922 9.58988 9.68403 12.5758 7.8645C13.9802 7.00866 14.3617 5.53447 14.3617 5.53447C14.3617 5.53447 12.8176 6.45422 11.8842 6.75787C9.67053 7.47797 7.65047 7.69497 7.65047 7.59753C7.65047 7.38891 9.42819 6.90006 11.313 5.98678C12.293 5.51194 13.1417 4.89156 14.1252 4.20166C15.7346 3.07288 16 1.0625 16 1.0625C16 1.0625 14.4127 2.08625 13.6381 2.42623C10.4419 3.82909 7.61966 4.56497 5.58475 4.72428C2.513 4.96478 0 7.108 0 9.89066C0 12.6733 2.50037 14.9292 5.58475 14.9292Z" fill="white"/>
</svg>

<svg xmlns="http://www.w3.org/2000/svg" width="16" height="16" fill="none"><path fill="#fff" fill-rule="evenodd" d="M5.585 14.93c2.344 0 4.35-1.303 5.179-3.15.01-.023-3.326.867-3.22.552.048-.14 2.093-.887 3.583-1.758.856-.501 1.25-1.562 1.25-1.562s-1.443.701-2.172.879c-1.47.358-2.763.32-2.763.282 0-.08 2.148-.489 5.134-2.309 1.404-.855 1.786-2.33 1.786-2.33s-1.544.92-2.478 1.224c-2.213.72-4.234.937-4.234.84 0-.21 1.778-.698 3.663-1.611.98-.475 1.829-1.095 2.812-1.785C15.735 3.072 16 1.062 16 1.062s-1.587 1.024-2.362 1.364C10.442 3.83 7.62 4.565 5.585 4.724 2.513 4.964 0 7.108 0 9.891c0 2.782 2.5 5.038 5.585 5.038Z" clip-rule="evenodd"/></svg>
